shader_type canvas_item;
uniform sampler2D screen_texture:hint_screen_texture,filter_linear_mipmap;
uniform float blur=2.0;

void fragment() {
	COLOR=texture(screen_texture,SCREEN_UV,blur);
}

//void light() {
//	// Called for every pixel for every light affecting the CanvasItem.
//	// Uncomment to replace the default light processing function with this one.
//}
